X: 142
Q: "Slow"
M: 6/8
L: 1/8
K: F
V: 1
|: e |\
f2e d2a | b2a g3 | d'2c' {c'}b2a | gab afd | c2A B2d | c2e f2d' | {d'}c'2a d2e | f3 f2 :|
V: 2 clef=bass middle=d
z |\
zfa bga | zbg ecf | ze^c dfB | AB=B c>_BA/G/ |\
|: z |\
zd'^c' d'df | e2f cef | g2a bgf | e2[ec] f2z |\
zf_e dcB | Afg afb | a2f bgc' | fcA F2 :|


